img/meditations/meditation.svg

<svg width="100" height="100" viewBox="0 0 100 100" fill="none" xmlns="http://www.w3.org/2000/svg">
<path d="M89.0626 86.7571C89.0417 93.2429 83.6549 98.4374 77.1692 98.4374H22.6562C16.166 98.4374 10.9168 93.1663 10.9375 86.6803C10.9584 80.1949 16.3451 75 22.8308 75H26.1894C27.4512 76.8849 29.6014 78.1251 32.0392 78.1251H67.9609C70.406 78.1251 72.558 76.874 73.8106 75H77.3437C83.834 75 89.0832 80.2714 89.0626 86.7571Z" fill="#FFE4CC"/>
<path d="M77.1692 98.4377H75V86.7188L53.1252 92.1877L52.9552 91.676C52.1232 89.1817 49.7892 87.5 47.162 87.5C44.8472 87.5 43.7226 88.5594 40.6252 90.6251L25 86.7188V98.4377H22.6563C16.184 98.4377 10.9375 93.1917 10.9375 86.7188C10.9375 80.2494 16.1809 75 22.6563 75H26.1895C27.4512 76.8848 29.6014 78.1251 32.0392 78.1251H67.9609C70.406 78.1251 72.558 76.874 73.8106 75C77.4709 75 81.7046 74.5094 85.6309 78.4317C92.9906 85.7983 87.7512 98.4377 77.1692 98.4377Z" fill="#7ADBAE"/>
<path d="M73.8106 74.9999C72.5586 76.8731 70.4072 78.1248 67.9609 78.1248H32.0392C29.6543 78.1248 27.4801 76.9279 26.1894 74.9999C25.707 75.0017 21.9863 75.0151 21.9219 75.0234C15.7605 75.4037 10.9176 80.5299 10.9375 86.7568C10.9584 93.2428 16.3451 98.4374 22.8308 98.4374H25V95.3125H22.8078C15.1533 95.3125 11.1201 86.0957 16.5801 80.6425C19.5234 77.6954 23.3103 78.1248 22.6562 78.1248C22.9031 78.1248 23.1359 78.2402 23.284 78.4379C24.5638 80.1457 26.6064 81.2499 28.9063 81.2499H67.1875C70.7849 81.2499 73.7732 78.5437 74.1717 75.0234C73.562 74.9842 73.066 74.9999 73.8106 74.9999Z" fill="#7ADBAE"/>
<path d="M42.1874 95.3126C39.6849 95.3126 38.6229 92.1266 40.6251 90.6251L34.2631 93.1697C32.8503 93.7349 32.7491 95.3126 32.8126 95.3126C29.5094 95.3126 26.6065 93.1229 25.699 89.9469L25 87.5V98.4374H75V95.3126H42.1874Z" fill="#F9CFAC"/>
<path d="M75 71.0861C75 74.9532 71.858 78.1252 67.9609 78.1252H32.0392C27.5475 78.1252 24.1881 73.9598 25.168 69.5586L27.1817 60.4904C29.5697 49.7555 39.0935 42.1875 50 42.1875C60.9917 42.1875 70.448 49.8318 72.8183 60.4904C74.9829 70.2381 75 70.0424 75 71.0861Z" fill="#F9CFAC"/>
<path d="M74.832 69.5588L72.8183 60.4902C71.8868 56.3008 69.8634 52.5839 67.088 49.6134C64.8543 47.6297 62.1708 46.0457 59.2403 45.0314C59.1328 45.1797 58.9766 45.3242 58.7794 45.4611C58.6183 45.3925 58.1397 45.2062 57.6348 45.0314C55.8583 47.4831 44.1434 47.4439 42.3671 45.0334C41.9551 45.1739 41.5468 45.3282 41.1446 45.4922C35.8103 48.6797 31.7526 53.9908 30.3066 60.4902C28.1184 70.3451 28.2274 69.7771 28.17 70.3068C28.5586 73.8262 31.5431 76.5625 35.164 76.5625C73.972 76.5625 71.3108 76.6562 72.6486 76.3322C74.4388 74.8237 75.4103 72.1562 74.832 69.5588Z" fill="#FFE4CC"/>
<path d="M53.8223 78.1251H48.4374C48.4374 77.2617 49.1369 76.5626 50 76.5626C51.2929 76.5626 52.3437 75.5117 52.3437 74.2189C52.3437 72.9531 51.3329 71.9074 50.0594 71.8757C49.2469 71.8554 48.528 71.2851 48.446 70.4763C48.3506 69.5394 49.0829 68.75 50 68.75C54.878 68.75 57.3352 74.6931 53.8223 78.1251Z" fill="#F9CFAC"/>
<path d="M61.2851 57.8126L64.0625 70.3126H62.8788C58.7594 70.3126 54.6511 68.7137 51.5625 65.6249H48.4374C45.4614 68.6012 41.3977 70.3126 37.1211 70.3126H34.3748L35.8848 63.5194C38.7911 63.0066 39.7897 62.8497 40.7734 62.6132C50.0137 60.4197 57.0137 53.0449 58.8808 43.9395C64.8534 46.3889 69.7811 51.3377 72.0528 57.8126H61.2851Z" fill="#7ADBAE"/>
<path d="M72.0528 57.8126H71.4414C68.9391 52.042 64.2343 47.5992 58.5408 45.3652C58.67 44.8946 58.7831 44.4197 58.8808 43.9395C64.8534 46.3889 69.7811 51.3377 72.0528 57.8126Z" fill="#EDAC5F"/>
<path d="M67.1874 70.3125H64.0626C61.5892 59.1751 62.2114 61.9756 61.2852 57.8125H64.0626L67.1874 70.3125Z" fill="#F9CFAC"/>
<path d="M64.0626 29.6365C63.298 31.1579 62.6528 31.9239 60.8397 34.3748H60.4843C59.1386 38.8925 54.9571 42.1873 50 42.1873C45.0371 42.1873 40.8563 38.8805 39.5157 34.3748H39.16L37.3397 31.9139C30.918 23.2284 35.5428 11.3827 45.3126 8.47837V6.35729C45.3126 2.13249 50.336 -0.0362645 53.3143 2.9354C54.9391 4.56375 54.6874 6.23503 54.6874 8.47837C63.6268 11.1366 68.2577 21.2792 64.0626 29.6365Z" fill="#F9CFAC"/>
<path d="M60.9374 23.4375V28.125C60.9374 34.1551 56.0046 39.242 49.9746 39.2283C45.4334 39.218 42.1874 35.5451 42.1874 31.4106C42.1874 24.9207 47.3114 20.3125 53.1252 20.3125H57.808C59.5334 20.3125 60.9349 21.7096 60.9374 23.4375Z" fill="#FFE4CC"/>
<path d="M50.1083 1.5634C46.6117 1.50363 43.75 4.43997 43.75 7.93683V10.9374H56.25V7.81243C56.25 4.40226 53.5046 1.62121 50.1083 1.5634Z" fill="#797A7A"/>
<path d="M62.66 31.9139L60.8397 34.3748H60.4843C61.0951 32.3242 60.9374 31.5002 60.9374 23.4374C60.9374 22.3515 60.7791 21.3027 60.4843 20.3124H59.5586C58.4946 20.3124 57.51 19.7118 57.0311 18.7499C56.5526 17.7929 55.5743 17.1874 54.5037 17.1874H45.496C44.4323 17.1874 43.4477 17.788 42.9686 18.7499C42.4903 19.707 41.5117 20.3124 40.4414 20.3124H39.5157C38.9048 22.363 39.0626 23.187 39.0626 31.2499C39.0626 32.3359 39.2206 33.3848 39.5157 34.3748H39.16L37.3397 31.9139C30.918 23.2284 35.5428 11.3827 45.3126 8.47844C48.2551 7.59916 51.6743 7.57804 54.6874 8.47844C64.4568 11.3827 69.082 23.2284 62.66 31.9139Z" fill="#6D6D6D"/>
<path d="M77.3437 98.4375H75V95.3123H78.9063C84.2774 95.3123 88.6426 91.1558 89.0351 85.9218C89.4906 92.7518 84.0811 98.4375 77.3437 98.4375Z" fill="#7ADBAE"/>
<path d="M64.2577 70.3123C62.8437 70.3123 62.2168 70.3326 61.1777 70.2206C58.0077 69.8826 55.006 68.6035 52.5625 66.5449C51.6145 65.7438 50.42 65.4823 49.3162 65.6738C47.3037 65.9932 47.1157 67.4869 43.246 69.0938C39.7842 70.5283 37.1791 70.3123 34.3748 70.3123L35.8848 63.5195L39.1368 62.9472L38.7851 63.8923C38.5214 64.6015 39.0254 65.3632 39.7831 65.4003C40.9745 65.2012 42.1368 64.8652 43.246 64.406C47.0777 62.8152 47.3171 61.3035 49.3162 60.9863C50.412 60.796 51.6045 61.048 52.5625 61.8572C55.4205 64.264 58.9954 65.6249 63.086 65.6249L64.2577 70.3123Z" fill="#7ADBAE"/>
<path d="M40.588 56.5896L39.1777 62.9391L35.8848 63.5193L37.5371 55.9099C37.7245 55.0682 38.5585 54.5368 39.4005 54.7245C40.2443 54.9119 40.7754 55.7459 40.588 56.5896Z" fill="#F9CFAC"/>
<path d="M29.8595 53.6275C30.576 54.1083 31.5469 53.9175 32.0277 53.2009C32.1203 53.0629 32.2163 52.9283 32.3143 52.794C32.8217 52.0963 32.6675 51.1192 31.9697 50.6115C31.272 50.104 30.2946 50.258 29.7872 50.956C29.666 51.1223 29.5475 51.2889 29.4329 51.4592C28.952 52.1757 29.1432 53.1463 29.8595 53.6275Z" fill="black"/>
<path d="M98.4374 96.8749H85.8891C95.3077 88.9377 89.7586 73.4374 77.3437 73.4374H76.236C77.0054 70.7169 76.448 69.6286 74.3434 60.1509C72.4057 51.4411 65.8806 44.222 56.9657 41.624C59.0926 40.1911 60.7549 38.1214 61.6817 35.6911C62.0063 35.4837 61.9217 35.5406 63.9166 32.842C70.8514 23.4613 66.0949 10.9975 56.25 7.34511V6.25C56.25 2.80371 53.4463 0 50 0C46.5537 0 43.75 2.80371 43.75 6.25V7.34511C33.9026 10.9984 29.1509 23.4645 36.0834 32.842C38.086 35.5509 37.9934 35.4837 38.3183 35.6911C39.2449 38.12 40.9054 40.1889 43.0306 41.6214C39.7086 42.5897 36.5971 44.2446 33.9197 46.5051C33.2603 47.062 33.1771 48.0477 33.734 48.7071C34.2906 49.3666 35.2766 49.4497 35.9357 48.8929C41.6991 44.0266 49.6731 42.4117 57.04 44.9257C54.7771 53.4314 47.8674 59.8186 39.0994 61.3654L37.9174 61.574L39.0251 56.5889C39.2123 55.7466 38.6811 54.912 37.8389 54.7246C36.9966 54.5374 36.162 55.0686 35.9746 55.9109C35.6269 57.4751 33.5811 66.6817 33.1214 68.7497H31.25C30.3871 68.7497 29.6874 69.4494 29.6874 70.3123C29.6874 71.1751 30.3871 71.8749 31.25 71.8749H37.1209C41.8131 71.8749 46.2243 70.0477 49.5423 66.7297C49.8474 66.4249 50 66.0251 50 65.6254C50.0003 66.0251 50.1529 66.4249 50.4577 66.7297C53.7757 70.0477 58.1869 71.8749 62.8791 71.8749H68.75C69.6129 71.8749 70.3126 71.1754 70.3126 70.3126C70.3126 69.4497 69.6129 68.75 68.75 68.75H66.8783L64.7949 59.3749H70.9111C71.0534 59.8549 71.184 60.3386 71.2929 60.8289C73.5003 70.77 73.4374 70.2714 73.4374 71.086C73.4374 74.1109 70.986 76.5626 67.9609 76.5626H54.94C55.2786 75.8517 55.4689 75.0571 55.4689 74.2189C55.4689 68.9226 48.4374 67.15 48.4374 70.3126C48.4374 71.1754 49.1371 71.8749 50 71.8749C51.2943 71.8749 52.3437 72.9243 52.3437 74.2189C52.3437 75.5111 51.2923 76.5626 50 76.5626H32.0391C28.5447 76.5626 25.9326 73.3169 26.6932 69.8971C28.7603 60.588 28.8531 59.8369 29.5669 57.9306C29.8691 57.1223 29.4591 56.222 28.6511 55.9194C27.843 55.6169 26.9428 56.0269 26.64 56.8349C25.8332 58.9909 25.7781 59.6029 23.6426 69.2189C23.3338 70.6069 23.3721 72.0511 23.7668 73.4374H22.6563C10.3596 73.4374 4.63574 88.88 14.1006 96.8749H1.5625C0.699609 96.8749 0 97.5743 0 98.4374C0 99.3003 0.699609 99.9997 1.5625 99.9997H98.4374C99.3003 99.9997 100 99.3003 100 98.4374C100 97.5743 99.3003 96.8749 98.4374 96.8749ZM46.8749 6.25C46.8749 4.52677 48.2769 3.125 50 3.125C51.7231 3.125 53.1251 4.52677 53.1251 6.25C53.1251 6.89043 53.3331 6.14843 49.4323 6.258C46.5906 6.33751 46.8749 6.78906 46.8749 6.25ZM37.3157 17.1502C42.3706 6.76737 57.6194 6.74649 62.6846 17.1502C64.6049 21.0943 64.5089 25.4871 62.5003 29.2486C62.5 22.9637 62.8497 18.75 60.4843 18.75C59.6689 18.75 58.8491 18.8955 58.4286 18.0512C57.6806 16.5547 56.1766 15.625 54.504 15.625C44.7891 15.625 44.6031 15.4125 43.186 16.2816C41.362 17.4135 41.774 18.75 40.4414 18.75H39.5157C37.1371 18.75 37.5 22.9961 37.5 29.2486C35.4911 25.4871 35.3954 21.0941 37.3157 17.1502ZM40.6251 31.25C40.6251 22.676 40.5811 22.9025 40.7563 21.8639C42.3011 21.7553 43.6651 20.8506 44.3674 19.4465C44.4714 19.2379 44.6323 19.0617 44.8269 18.9412C45.2634 18.6732 44.7566 18.75 54.504 18.75C55.8323 18.75 55.422 20.0852 57.2554 21.2227C57.8609 21.5939 58.5426 21.8131 59.2434 21.8637C59.428 22.9559 59.3749 22.8291 59.3749 31.25C59.3749 36.4194 55.1694 40.6251 50 40.6251C44.8306 40.6251 40.6251 36.4194 40.6251 31.25ZM64.1006 56.25L64.0251 55.9111C63.838 55.0689 63.0034 54.5374 62.1609 54.7249C61.3186 54.912 60.7874 55.7466 60.9746 56.5891L63.6771 68.75H62.8791C59.0217 68.75 55.3951 67.2477 52.6674 64.52C51.6806 63.5331 50.0006 64.2451 50 65.6243C49.9997 64.2454 48.32 63.5331 47.3326 64.52C44.6049 67.2477 40.9783 68.75 37.1209 68.75H36.3229L37.1837 64.8769L39.6429 64.4429C49.5954 62.6869 57.3111 55.386 59.9451 46.1563C64.32 48.3934 67.6863 51.9614 69.7163 56.25H64.1006ZM35.558 90.9688L33.9891 91.5966C31.8589 92.4486 30.8009 94.7503 31.4286 96.8749H26.5625V88.72L35.558 90.9688ZM35.6077 96.8749C34.2617 96.8749 33.8911 95.0014 35.1497 94.4977C41.6257 91.9074 41.298 92.0534 41.4917 91.9251C44.8023 89.718 45.43 89.0626 47.1611 89.0626C49.12 89.0626 50.8523 90.3111 51.4717 92.1694L51.6423 92.6817C51.9006 93.4563 52.7111 93.9014 53.5037 93.7034L73.4374 88.72V96.8749H35.6077ZM76.5626 96.8749V87.9386L78.504 87.4534C79.3411 87.244 79.85 86.3957 79.6409 85.5586C79.4317 84.7214 78.5831 84.2126 77.746 84.4217L54.0971 90.3337C52.844 87.6714 50.16 85.9374 47.1614 85.9374C44.3694 85.9374 42.9097 87.224 40.3334 88.9414L22.2539 84.4214C21.4166 84.2123 20.5684 84.7214 20.359 85.5583C20.1498 86.3954 20.6588 87.244 21.4959 87.4531L23.4373 87.9386V96.8749H22.6561C17.0299 96.8749 12.4998 92.3194 12.4998 86.7189C12.4998 81.1186 17.0559 76.5626 22.6561 76.5626H25.4111C26.99 78.47 29.3749 79.6874 32.0389 79.6874H67.9609C70.556 79.6874 72.9486 78.5449 74.592 76.5626C77.7829 76.5626 81.2034 76.2174 84.5251 79.536C90.8683 85.8849 86.4126 96.8749 77.3437 96.8749H76.5626Z" fill="black"/>
</svg>

<svg width="100" height="100" fill="none" xmlns="http://www.w3.org/2000/svg"><path d="M89.063 86.757c-.021 6.486-5.408 11.68-11.894 11.68H22.656c-6.49 0-11.74-5.27-11.718-11.757C10.957 80.195 16.345 75 22.83 75h3.358a7.028 7.028 0 005.85 3.125H67.96A7.033 7.033 0 0073.81 75h3.533c6.49 0 11.74 5.271 11.719 11.757z" fill="#FFE4CC"/><path d="M77.17 98.438H75v-11.72l-21.875 5.47-.17-.512a6.108 6.108 0 00-5.793-4.176c-2.315 0-3.44 1.06-6.537 3.125L25 86.72v11.719h-2.344c-6.472 0-11.718-5.246-11.718-11.72C10.938 80.25 16.18 75 22.655 75h3.534a7.028 7.028 0 005.85 3.125h35.92A7.033 7.033 0 0073.81 75c3.66 0 7.895-.49 11.82 3.432 7.36 7.366 2.121 20.006-8.46 20.006z" fill="#7ADBAE"/><path d="M73.81 75a7.032 7.032 0 01-5.85 3.125H32.04A7.031 7.031 0 0126.19 75c-.483.002-4.204.015-4.268.023-6.162.38-11.004 5.507-10.985 11.734.021 6.486 5.408 11.68 11.894 11.68H25v-3.124h-2.192c-7.655 0-11.688-9.217-6.228-14.67 2.943-2.948 6.73-2.518 6.076-2.518.247 0 .48.115.628.313a7.01 7.01 0 005.622 2.812h38.282a7.027 7.027 0 006.984-6.227c-.61-.039-1.106-.023-.361-.023z" fill="#7ADBAE"/><path d="M42.187 95.313c-2.502 0-3.564-3.186-1.562-4.688l-6.362 2.545c-1.413.565-1.514 2.143-1.45 2.143a7.398 7.398 0 01-7.114-5.366L25 87.5v10.937h50v-3.124H42.187zM75 71.086c0 3.867-3.142 7.04-7.04 7.04H32.04c-4.492 0-7.852-4.166-6.872-8.567l2.014-9.069C29.57 49.755 39.094 42.187 50 42.187c10.992 0 20.448 7.645 22.818 18.303C74.983 70.238 75 70.042 75 71.086z" fill="#F9CFAC"/><path d="M74.832 69.559l-2.014-9.069a23.314 23.314 0 00-5.73-10.877 23.382 23.382 0 00-7.848-4.582 1.908 1.908 0 01-.46.43c-.162-.069-.64-.255-1.145-.43-1.777 2.452-13.492 2.413-15.268.002-.412.14-.82.295-1.222.46A23.366 23.366 0 0030.307 60.49c-2.189 9.855-2.08 9.287-2.137 9.817a7.038 7.038 0 006.994 6.255c38.808 0 36.147.094 37.485-.23 1.79-1.508 2.761-4.176 2.183-6.773z" fill="#FFE4CC"/><path d="M53.822 78.125h-5.385c0-.863.7-1.562 1.563-1.562a2.346 2.346 0 002.344-2.344 2.345 2.345 0 00-2.285-2.343c-.812-.02-1.531-.59-1.613-1.4A1.562 1.562 0 0150 68.75c4.878 0 7.335 5.943 3.822 9.375z" fill="#F9CFAC"/><path d="M61.285 57.813l2.778 12.5h-1.184c-4.12 0-8.228-1.6-11.316-4.688h-3.126a16.009 16.009 0 01-11.316 4.688h-2.746l1.51-6.794c2.906-.512 3.905-.67 4.888-.906 9.24-2.193 16.24-9.568 18.108-18.673a23.379 23.379 0 0113.172 13.873H61.285z" fill="#7ADBAE"/><path d="M72.053 57.813h-.612a23.392 23.392 0 00-12.9-12.448c.129-.47.242-.945.34-1.425a23.379 23.379 0 0113.172 13.873z" fill="#EDAC5F"/><path d="M67.187 70.313h-3.124c-2.474-11.138-1.852-8.337-2.778-12.5h2.778l3.124 12.5zm-3.124-40.676c-.765 1.52-1.41 2.287-3.223 4.738h-.356C59.14 38.892 54.957 42.187 50 42.187c-4.963 0-9.144-3.306-10.484-7.812h-.356l-1.82-2.461c-6.422-8.686-1.797-20.531 7.973-23.436v-2.12c0-4.226 5.023-6.394 8.001-3.423 1.625 1.629 1.373 3.3 1.373 5.543 8.94 2.659 13.57 12.801 9.376 21.159z" fill="#F9CFAC"/><path d="M60.937 23.438v4.687c0 6.03-4.932 11.117-10.962 11.103-4.542-.01-7.788-3.683-7.788-7.817 0-6.49 5.124-11.099 10.938-11.099h4.683a3.13 3.13 0 013.13 3.125z" fill="#FFE4CC"/><path d="M50.108 1.563c-3.496-.06-6.358 2.877-6.358 6.374v3h12.5V7.812a6.257 6.257 0 00-6.142-6.249z" fill="#797A7A"/><path d="M62.66 31.914l-1.82 2.46h-.356c.611-2.05.453-2.874.453-10.937 0-1.085-.158-2.134-.453-3.125h-.925c-1.064 0-2.049-.6-2.528-1.562a2.826 2.826 0 00-2.527-1.563h-9.008a2.825 2.825 0 00-2.527 1.563 2.826 2.826 0 01-2.528 1.562h-.925c-.611 2.051-.453 2.875-.453 10.938 0 1.086.158 2.135.453 3.125h-.356l-1.82-2.461c-6.422-8.686-1.797-20.531 7.973-23.436 2.942-.879 6.361-.9 9.374 0 9.77 2.905 14.395 14.75 7.973 23.436z" fill="#6D6D6D"/><path d="M77.344 98.438H75v-3.126h3.906c5.371 0 9.737-4.156 10.13-9.39.455 6.83-4.955 12.516-11.692 12.516zM64.258 70.312c-1.414 0-2.041.02-3.08-.091a16.008 16.008 0 01-8.615-3.676 3.955 3.955 0 00-3.247-.871c-2.012.32-2.2 1.813-6.07 3.42-3.462 1.434-6.067 1.218-8.871 1.218l1.51-6.792 3.252-.573-.352.945a1.12 1.12 0 00.998 1.508 15.927 15.927 0 003.463-.994c3.832-1.59 4.071-3.103 6.07-3.42a3.947 3.947 0 013.246.871c2.858 2.407 6.433 3.768 10.524 3.768l1.172 4.687z" fill="#7ADBAE"/><path d="M40.588 56.59l-1.41 6.35-3.293.58 1.652-7.61a1.562 1.562 0 013.05.68z" fill="#F9CFAC"/><path d="M29.86 53.627c.716.481 1.687.29 2.168-.426.092-.138.188-.273.286-.407a1.563 1.563 0 00-2.527-1.838c-.121.166-.24.333-.354.503a1.562 1.562 0 00.427 2.168z" fill="#000"/><path d="M98.437 96.875H85.89c9.419-7.937 3.87-23.438-8.545-23.438h-1.108c.77-2.72.212-3.808-1.893-13.286a24.937 24.937 0 00-17.377-18.527 12.565 12.565 0 004.716-5.933c.324-.207.24-.15 2.235-2.849 6.934-9.38 2.178-21.844-7.667-25.497V6.25A6.257 6.257 0 0050 0a6.257 6.257 0 00-6.25 6.25v1.095c-9.847 3.653-14.6 16.12-7.667 25.497 2.003 2.709 1.91 2.642 2.235 2.85a12.565 12.565 0 004.713 5.93 24.947 24.947 0 00-9.111 4.883 1.562 1.562 0 102.016 2.388 21.775 21.775 0 0121.104-3.967c-2.263 8.505-9.173 14.893-17.94 16.44l-1.183.208 1.108-4.985a1.563 1.563 0 00-3.05-.678L33.12 68.75h-1.87a1.563 1.563 0 000 3.125h5.87c4.693 0 9.104-1.827 12.422-5.145.305-.305.458-.705.458-1.105 0 .4.153.8.458 1.105a17.451 17.451 0 0012.421 5.145h5.871a1.563 1.563 0 100-3.125h-1.872l-2.083-9.375h6.116c.142.48.273.964.382 1.454 2.207 9.941 2.144 9.442 2.144 10.257a5.476 5.476 0 01-5.476 5.477H54.94a5.433 5.433 0 00.529-2.344c0-5.296-7.032-7.069-7.032-3.906 0 .862.7 1.562 1.563 1.562a2.344 2.344 0 010 4.688H32.04c-3.495 0-6.107-3.246-5.347-6.666 2.067-9.309 2.16-10.06 2.874-11.966a1.563 1.563 0 00-2.927-1.096c-.807 2.156-.862 2.768-2.997 12.384a8.574 8.574 0 00.124 4.218h-1.11c-12.297 0-18.021 15.443-8.556 23.438H1.562a1.562 1.562 0 100 3.125h96.875a1.562 1.562 0 100-3.125zM46.875 6.25A3.129 3.129 0 0150 3.125a3.129 3.129 0 013.125 3.125c0 .64.208-.102-3.693.008-2.841.08-2.557.531-2.557-.008zm-9.56 10.9c5.056-10.383 20.304-10.404 25.37 0 1.92 3.944 1.824 8.337-.185 12.099 0-6.285.35-10.499-2.016-10.499-.815 0-1.635.145-2.055-.699a4.364 4.364 0 00-3.925-2.426c-9.715 0-9.9-.213-11.318.657-1.824 1.131-1.412 2.468-2.745 2.468h-.925c-2.379 0-2.016 4.246-2.016 10.499-2.009-3.762-2.105-8.155-.184-12.099zm3.31 14.1c0-8.574-.044-8.348.131-9.386a4.363 4.363 0 003.611-2.418 1.26 1.26 0 01.46-.505c.436-.268-.07-.191 9.677-.191 1.328 0 .918 1.335 2.751 2.473.606.37 1.288.59 1.988.64.185 1.093.132.966.132 9.387 0 5.17-4.206 9.375-9.375 9.375-5.17 0-9.375-4.206-9.375-9.375zm23.476 25l-.076-.339a1.562 1.562 0 10-3.05.678l2.702 12.161h-.798a14.347 14.347 0 01-10.212-4.23c-.986-.987-2.666-.275-2.667 1.104 0-1.379-1.68-2.09-2.667-1.104a14.347 14.347 0 01-10.212 4.23h-.798l.86-3.873 2.46-.434c9.952-1.756 17.668-9.057 20.302-18.287a21.724 21.724 0 019.771 10.094h-5.615zM35.558 90.969l-1.569.628a4.347 4.347 0 00-2.56 5.278h-4.866V88.72l8.995 2.249zm.05 5.906c-1.346 0-1.717-1.874-.458-2.377 6.476-2.59 6.148-2.445 6.342-2.573 3.31-2.207 3.938-2.862 5.67-2.862a4.538 4.538 0 014.31 3.106l.17.513a1.562 1.562 0 001.862 1.021l19.933-4.983v8.155h-37.83zm40.955 0v-8.936l1.941-.486a1.563 1.563 0 00-.758-3.031l-23.649 5.912a7.658 7.658 0 00-6.936-4.397c-2.792 0-4.251 1.287-6.828 3.004l-18.08-4.52a1.563 1.563 0 00-.757 3.032l1.941.486v8.936h-.78c-5.627 0-10.157-4.556-10.157-10.156 0-5.6 4.556-10.156 10.156-10.156h2.755a8.588 8.588 0 006.628 3.124H67.96a8.558 8.558 0 006.631-3.124c3.19 0 6.611-.346 9.933 2.973 6.343 6.349 1.888 17.339-7.181 17.339h-.781z" fill="#000"/></svg>
